X: 4293
T: Bobby Shaftoe
R: polka
M: 2/4
K: Gmajor
|:GG Gc|Bd BG|DD DG|FA FD|
GG Gc|Bd BG|Ac AF|G2 G2:|
|:Bd BG|Bd B2|Ac AF|Ac A2|
Bd BG|Bd B2|Ac AF|G2 G2:|

